svgs/1F935-1F3FC-200D-2640-FE0F.svg

<svg xmlns="http://www.w3.org/2000/svg" xmlns:xlink="http://www.w3.org/1999/xlink" preserveAspectRatio="none" viewBox="0 0 72 72"><defs><g id="a"><path fill="#020202" d="M63 72v-.35Q63 59 45.4 55.7q-.15 0-.35-.05 2.3 1.55 4.6 4.4 1.5 1.85 2.4 3.4L48.4 66.2l4.3 2.85L51.45 72H63M21.75 60.05q2.2-2.75 4.5-4.25Q9 59.15 9 71.65V72h10.95l-1.2-2.95 4.3-2.85-3.65-2.75q.9-1.55 2.35-3.4z"/><path fill="#FFF" d="M29.8 56.4l-1.25 1.4q-1.25 1.9-1.3 4.3-.1 3.2 1.5 9.9h13.9q1.65-6.7 1.55-9.9-.05-2.4-1.3-4.3l-1.25-1.4-5.95-1.15-5.9 1.15z"/><path fill="#444" d="M39.1 54.35q-2.35-.15-3.4-.1-1-.05-3.4.1-2.9.15-4.5.5-.75.4-1.55.95-2.3 1.5-4.5 4.25-1.45 1.85-2.35 3.4l3.65 2.75-4.3 2.85 1.2 2.95h8.8q-1.6-6.7-1.5-9.9.05-2.4 1.3-4.3l1.25-1.4 5.9-1.15 5.95 1.15 1.25 1.4q1.25 1.9 1.3 4.3.1 3.2-1.55 9.9h8.8l1.25-2.95-4.3-2.85 3.65-2.75q-.9-1.55-2.4-3.4-2.3-2.85-4.6-4.4-.7-.5-1.45-.8-1.55-.35-4.5-.5z"/></g><path id="b" fill="#C48E6A" d="M35.7 62.6q2.55 0 4.25-1.8 1.7-1.8 1.7-4.4v-5.25H29.8v5.25q0 2.6 1.65 4.4 1.7 1.8 4.25 1.8z"/><path id="c" fill="#BFA055" d="M118.2 71.6l.3-15.8L65 53.6 9.5 55.8l.3 15.8q.7 18.65 2.85 33.05 2 13.55 3.95 16.2 2.4 3.3 11.2 2.3 6.3-.75 20.9-3 9.45-1.5 14.8-1.5h.95q5.35 0 14.8 1.5 14.6 2.25 20.85 3 8.8 1 11.2-2.3 2-2.65 4-16.2 2.15-14.4 2.9-33.05z"/><path id="d" fill="#BFA055" d="M102.5 91.65q16-14.75 16-35.55 0-20.85-16-35.55Q86.55 5.8 64 5.8q-22.6 0-38.55 14.75Q9.5 35.25 9.5 56.1q0 20.8 15.95 35.55 16 14.75 38.55 14.75 22.55 0 38.5-14.75z"/><path id="e" fill="#E0BB95" d="M106.75 73.45q0-28.7-8.9-42.6Q87.7 14.9 64.15 14.9q-23.55 0-33.9 16.1-9.05 14.15-9.05 42.8 0 24 15.45 37.5 12.35 10.85 27.5 10.85 15.05 0 27.35-11 15.25-13.7 15.25-37.7z"/><path id="f" fill="#BFA055" d="M108.05 32.25q-3.2-6.5-10.25-13.05Q83.65 6.15 64.4 6.15q-19.2 0-33.35 12.75Q24 25.3 20.8 31.65v39.8q19-3.2 37.35-14.65 10.5-6.55 18.3-14 .3-.3.7-.25.4.1.6.5Q84.05 56 96.7 65q6.3 4.55 11.35 6.45v-39.2z"/><path id="g" fill="#444" d="M40.15 72.35q-1.7 2-1.7 4.85 0 2.9 1.7 4.9 1.65 2 4.05 2 2.35 0 4.05-2 1.65-2.05 1.65-4.9 0-2.85-1.65-4.85-1.7-2.05-4.05-2.05-2.4 0-4.05 2.05z"/><path id="h" fill="#444" d="M87.85 72.35q-1.7-2.05-4.05-2.05-2.4 0-4.05 2.05-1.7 2-1.7 4.85 0 2.85 1.7 4.9 1.65 2 4.05 2 2.35 0 4.05-2 1.65-2 1.65-4.9 0-2.85-1.65-4.85z"/><path id="i" fill="#513F35" d="M63.95 108.75q4.9 0 9-2.15 3.2-1.7 4.5-3.7.7-1.05.35-1.7-.35-.65-1.45-.65H51.6q-1.1 0-1.45.65-.35.65.35 1.7 1.3 2 4.5 3.7 4.1 2.15 8.95 2.15z"/><path id="j" fill="#C48E6A" d="M58 90q-.65-.15-.9.3-.3.4-.05.9.7 1.15 2.4 2.2 2.2 1.35 4.55 1.35 2.35 0 4.5-1.35 1.7-1.05 2.4-2.2.25-.5 0-.9-.3-.45-.95-.3-3.15.9-5.95.9-2.85 0-6-.9z"/><path id="k" fill="#020202" d="M75.95 110.55q.15-2.7.1-3.65-.1-1.65-1.1-2.05-1.25-.45-2.8.2-.75.25-2.3 1.25-1.5.95-4.5 2.8-.75.4-.85 1.5-.15 1.05.3 1.75.65 1 4.65 2.65.95.4 2.95 1.3 1.75.6 2.85.1.8-.35.85-1.85-.15-2.3-.15-4z"/><path id="l" fill="#444" d="M73.25 108.85q0-.2-1.15-.1-1.2.1-2.75.45-3.9.8-3.8 1.2.1.45 3.9-.35 3.9-.8 3.8-1.2z"/><path id="m" fill="#444" d="M73.3 112.8q0-.4-3.85-.95-1.6-.25-2.75-.3-1.15-.05-1.15.15-.1.45 3.8 1 3.85.55 3.95.1z"/><path id="n" fill="#020202" d="M62.5 110.6q-.15-1.1-.9-1.5-3-1.85-4.5-2.8-1.55-1-2.3-1.25-1.55-.65-2.8-.2-1 .4-1.1 2.05-.05.95.1 3.65 0 1.7-.15 4 .05 1.5.85 1.85 1.1.5 2.85-.1 1-.35 3-1.3 4-1.7 4.65-2.65.4-.7.3-1.75z"/><path id="o" fill="#444" d="M57.6 109.2q-3.8-.8-3.9-.35-.1.4 3.8 1.2 3.8.8 3.9.35.1-.4-3.8-1.2z"/><path id="p" fill="#444" d="M57.5 111.85q-3.85.55-3.85.95.1.45 3.95-.1t3.85-1q-.05-.2-1.2-.15-1.15.05-2.75.3z"/><path id="q" fill="#020202" d="M37.65 62.6q0-.9-.45-1.4-.5-.55-1.5-.55-1.9 0-1.9 1.95 0 .8.55 1.3.55.45 1.35.45.85 0 1.35-.45.6-.5.6-1.3z"/><path id="r" fill="#444" d="M63.5 117.25q-.65 0-1.15.5-.45.45-.45 1.1 0 .7.45 1.15.5.45 1.15.45.65 0 1.1-.45.45-.5.45-1.15 0-.65-.45-1.1-.45-.5-1.1-.5z"/><path id="s" fill="#444" d="M63.5 122.75q-.65 0-1.15.45-.45.5-.45 1.15 0 .65.45 1.1.5.45 1.15.45.65 0 1.1-.45.45-.45.45-1.1 0-.65-.45-1.15-.45-.45-1.1-.45z"/></defs><use xlink:href="#a"/><use xlink:href="#b"/><use transform="matrix(.43787 0 0 .43787 7.8 1)" xlink:href="#c"/><use transform="matrix(.43787 0 0 .43787 7.8 1)" xlink:href="#d"/><use transform="matrix(.43787 0 0 .43787 7.8 1)" xlink:href="#e"/><use transform="matrix(.43787 0 0 .43787 7.8 1)" xlink:href="#f"/><use transform="matrix(.43767 0 0 .43767 7.8 1)" xlink:href="#g"/><use transform="matrix(.43767 0 0 .43767 7.8 1)" xlink:href="#h"/><use transform="matrix(.43767 0 0 .43767 7.8 1)" xlink:href="#i"/><use transform="matrix(.43767 0 0 .43767 7.8 1)" xlink:href="#j"/><use transform="matrix(.56244 0 0 .56244 0 .1)" xlink:href="#k"/><use transform="matrix(.56244 0 0 .56244 0 .1)" xlink:href="#l"/><use transform="matrix(.56244 0 0 .56244 0 .1)" xlink:href="#m"/><use transform="matrix(.56244 0 0 .56244 0 .1)" xlink:href="#n"/><use transform="matrix(.56244 0 0 .56244 0 .1)" xlink:href="#o"/><use transform="matrix(.56244 0 0 .56244 0 .1)" xlink:href="#p"/><use xlink:href="#q"/><use transform="scale(.5625)" xlink:href="#r"/><use transform="scale(.5625)" xlink:href="#s"/></svg>

<svg xmlns="http://www.w3.org/2000/svg" version="1.1" xmlns:xlink="http://www.w3.org/1999/xlink" preserveAspectRatio="none" x="0px" y="0px" width="72px" height="72px" viewBox="0 0 72 72">
<defs>
<g id="Layer1_0_MEMBER_0_MEMBER_0_MEMBER_0_FILL">
<path fill="#020202" stroke="none" d="
M 63 72
L 63 71.65
Q 63 59 45.4 55.7 45.25 55.7 45.05 55.65 47.35 57.2 49.65 60.05 51.15 61.9 52.05 63.45
L 48.4 66.2 52.7 69.05 51.45 72 63 72
M 21.75 60.05
Q 23.95 57.3 26.25 55.8 9 59.15 9 71.65
L 9 72 19.95 72 18.75 69.05 23.05 66.2 19.4 63.45
Q 20.3 61.9 21.75 60.05 Z"/>

<path fill="#FFFFFF" stroke="none" d="
M 29.8 56.4
L 28.55 57.8
Q 27.3 59.7 27.25 62.1 27.15 65.3 28.75 72
L 42.65 72
Q 44.3 65.3 44.2 62.1 44.15 59.7 42.9 57.8
L 41.65 56.4 35.7 55.25 29.8 56.4 Z"/>

<path fill="#444444" stroke="none" d="
M 39.1 54.35
Q 36.75 54.2 35.7 54.25 34.7 54.2 32.3 54.35 29.4 54.5 27.8 54.85 27.05 55.25 26.25 55.8 23.95 57.3 21.75 60.05 20.3 61.9 19.4 63.45
L 23.05 66.2 18.75 69.05 19.95 72 28.75 72
Q 27.15 65.3 27.25 62.1 27.3 59.7 28.55 57.8
L 29.8 56.4 35.7 55.25 41.65 56.4 42.9 57.8
Q 44.15 59.7 44.2 62.1 44.3 65.3 42.65 72
L 51.45 72 52.7 69.05 48.4 66.2 52.05 63.45
Q 51.15 61.9 49.65 60.05 47.35 57.2 45.05 55.65 44.35 55.15 43.6 54.85 42.05 54.5 39.1 54.35 Z"/>
</g>

<g id="Layer1_0_MEMBER_0_MEMBER_0_MEMBER_0_MEMBER_0_FILL">
<path fill="#C48E6A" stroke="none" d="
M 35.7 62.6
Q 38.25 62.6 39.95 60.8 41.65 59 41.65 56.4
L 41.65 51.15 29.8 51.15 29.8 56.4
Q 29.8 59 31.45 60.8 33.15 62.6 35.7 62.6 Z"/>
</g>

<g id="Layer1_0_MEMBER_0_MEMBER_0_MEMBER_0_MEMBER_1_MEMBER_0_FILL">
<path fill="#BFA055" stroke="none" d="
M 118.2 71.6
L 118.5 55.8 65 53.6 9.5 55.8 9.8 71.6
Q 10.5 90.25 12.65 104.65 14.65 118.2 16.6 120.85 19 124.15 27.8 123.15 34.1 122.4 48.7 120.15 58.15 118.65 63.5 118.65
L 64.45 118.65
Q 69.8 118.65 79.25 120.15 93.85 122.4 100.1 123.15 108.9 124.15 111.3 120.85 113.3 118.2 115.3 104.65 117.45 90.25 118.2 71.6 Z"/>
</g>

<g id="Layer1_0_MEMBER_0_MEMBER_0_MEMBER_0_MEMBER_1_MEMBER_1_FILL">
<path fill="#BFA055" stroke="none" d="
M 102.5 91.65
Q 118.5 76.9 118.5 56.1 118.5 35.25 102.5 20.55 86.55 5.8 64 5.8 41.4 5.8 25.45 20.55 9.5 35.25 9.5 56.1 9.5 76.9 25.45 91.65 41.45 106.4 64 106.4 86.55 106.4 102.5 91.65 Z"/>
</g>

<g id="Layer1_0_MEMBER_0_MEMBER_0_MEMBER_0_MEMBER_1_MEMBER_2_FILL">
<path fill="#E0BB95" stroke="none" d="
M 106.75 73.45
Q 106.75 44.75 97.85 30.85 87.7 14.9 64.15 14.9 40.6 14.9 30.25 31 21.2 45.15 21.2 73.8 21.2 97.8 36.65 111.3 49 122.15 64.15 122.15 79.2 122.15 91.5 111.15 106.75 97.45 106.75 73.45 Z"/>
</g>

<g id="Layer1_0_MEMBER_0_MEMBER_0_MEMBER_0_MEMBER_1_MEMBER_3_FILL">
<path fill="#BFA055" stroke="none" d="
M 108.05 32.25
Q 104.85 25.75 97.8 19.2 83.65 6.15 64.4 6.15 45.2 6.15 31.05 18.9 24 25.3 20.8 31.65
L 20.8 71.45
Q 39.8 68.25 58.15 56.8 68.65 50.25 76.45 42.8 76.75 42.5 77.15 42.55 77.55 42.65 77.75 43.05 84.05 56 96.7 65 103 69.55 108.05 71.45
L 108.05 32.25 Z"/>
</g>

<g id="Layer1_0_MEMBER_0_MEMBER_0_MEMBER_0_MEMBER_1_MEMBER_4_MEMBER_0_FILL">
<path fill="#444444" stroke="none" d="
M 40.15 72.35
Q 38.45 74.35 38.45 77.2 38.45 80.1 40.15 82.1 41.8 84.1 44.2 84.1 46.55 84.1 48.25 82.1 49.9 80.05 49.9 77.2 49.9 74.35 48.25 72.35 46.55 70.3 44.2 70.3 41.8 70.3 40.15 72.35 Z"/>
</g>

<g id="Layer1_0_MEMBER_0_MEMBER_0_MEMBER_0_MEMBER_1_MEMBER_4_MEMBER_1_FILL">
<path fill="#444444" stroke="none" d="
M 87.85 72.35
Q 86.15 70.3 83.8 70.3 81.4 70.3 79.75 72.35 78.05 74.35 78.05 77.2 78.05 80.05 79.75 82.1 81.4 84.1 83.8 84.1 86.15 84.1 87.85 82.1 89.5 80.1 89.5 77.2 89.5 74.35 87.85 72.35 Z"/>
</g>

<g id="Layer1_0_MEMBER_0_MEMBER_0_MEMBER_0_MEMBER_1_MEMBER_4_MEMBER_2_FILL">
<path fill="#513F35" stroke="none" d="
M 63.95 108.75
Q 68.85 108.75 72.95 106.6 76.15 104.9 77.45 102.9 78.15 101.85 77.8 101.2 77.45 100.55 76.35 100.55
L 51.6 100.55
Q 50.5 100.55 50.15 101.2 49.8 101.85 50.5 102.9 51.8 104.9 55 106.6 59.1 108.75 63.95 108.75 Z"/>
</g>

<g id="Layer1_0_MEMBER_0_MEMBER_0_MEMBER_0_MEMBER_1_MEMBER_4_MEMBER_3_FILL">
<path fill="#C48E6A" stroke="none" d="
M 58 90
Q 57.35 89.85 57.1 90.3 56.8 90.7 57.05 91.2 57.75 92.35 59.45 93.4 61.65 94.75 64 94.75 66.35 94.75 68.5 93.4 70.2 92.35 70.9 91.2 71.15 90.7 70.9 90.3 70.6 89.85 69.95 90 66.8 90.9 64 90.9 61.15 90.9 58 90 Z"/>
</g>

<g id="Layer1_0_MEMBER_0_MEMBER_0_MEMBER_1_MEMBER_0_MEMBER_0_MEMBER_0_FILL">
<path fill="#020202" stroke="none" d="
M 75.95 110.55
Q 76.1 107.85 76.05 106.9 75.95 105.25 74.95 104.85 73.7 104.4 72.15 105.05 71.4 105.3 69.85 106.3 68.35 107.25 65.35 109.1 64.6 109.5 64.5 110.6 64.35 111.65 64.8 112.35 65.45 113.35 69.45 115 70.4 115.4 72.4 116.3 74.15 116.9 75.25 116.4 76.05 116.05 76.1 114.55 75.95 112.25 75.95 110.55 Z"/>
</g>

<g id="Layer1_0_MEMBER_0_MEMBER_0_MEMBER_1_MEMBER_0_MEMBER_0_MEMBER_1_FILL">
<path fill="#444444" stroke="none" d="
M 73.25 108.85
Q 73.25 108.65 72.1 108.75 70.9 108.85 69.35 109.2 65.45 110 65.55 110.4 65.65 110.85 69.45 110.05 73.35 109.25 73.25 108.85 Z"/>
</g>

<g id="Layer1_0_MEMBER_0_MEMBER_0_MEMBER_1_MEMBER_0_MEMBER_0_MEMBER_2_FILL">
<path fill="#444444" stroke="none" d="
M 73.3 112.8
Q 73.3 112.4 69.45 111.85 67.85 111.6 66.7 111.55 65.55 111.5 65.55 111.7 65.45 112.15 69.35 112.7 73.2 113.25 73.3 112.8 Z"/>
</g>

<g id="Layer1_0_MEMBER_0_MEMBER_0_MEMBER_1_MEMBER_0_MEMBER_1_MEMBER_0_FILL">
<path fill="#020202" stroke="none" d="
M 62.5 110.6
Q 62.35 109.5 61.6 109.1 58.6 107.25 57.1 106.3 55.55 105.3 54.8 105.05 53.25 104.4 52 104.85 51 105.25 50.9 106.9 50.85 107.85 51 110.55 51 112.25 50.85 114.55 50.9 116.05 51.7 116.4 52.8 116.9 54.55 116.3 55.55 115.95 57.55 115 61.55 113.3 62.2 112.35 62.6 111.65 62.5 110.6 Z"/>
</g>

<g id="Layer1_0_MEMBER_0_MEMBER_0_MEMBER_1_MEMBER_0_MEMBER_1_MEMBER_1_FILL">
<path fill="#444444" stroke="none" d="
M 57.6 109.2
Q 53.8 108.4 53.7 108.85 53.6 109.25 57.5 110.05 61.3 110.85 61.4 110.4 61.5 110 57.6 109.2 Z"/>
</g>

<g id="Layer1_0_MEMBER_0_MEMBER_0_MEMBER_1_MEMBER_0_MEMBER_1_MEMBER_2_FILL">
<path fill="#444444" stroke="none" d="
M 57.5 111.85
Q 53.65 112.4 53.65 112.8 53.75 113.25 57.6 112.7 61.45 112.15 61.45 111.7 61.4 111.5 60.25 111.55 59.1 111.6 57.5 111.85 Z"/>
</g>

<g id="Layer1_0_MEMBER_0_MEMBER_0_MEMBER_1_MEMBER_1_FILL">
<path fill="#020202" stroke="none" d="
M 37.65 62.6
Q 37.65 61.7 37.2 61.2 36.7 60.65 35.7 60.65 33.8 60.65 33.8 62.6 33.8 63.4 34.35 63.9 34.9 64.35 35.7 64.35 36.55 64.35 37.05 63.9 37.65 63.4 37.65 62.6 Z"/>
</g>

<g id="Layer1_0_MEMBER_0_MEMBER_1_FILL">
<path fill="#444444" stroke="none" d="
M 63.5 117.25
Q 62.85 117.25 62.35 117.75 61.9 118.2 61.9 118.85 61.9 119.55 62.35 120 62.85 120.45 63.5 120.45 64.15 120.45 64.6 120 65.05 119.5 65.05 118.85 65.05 118.2 64.6 117.75 64.15 117.25 63.5 117.25 Z"/>
</g>

<g id="Layer1_0_MEMBER_0_MEMBER_2_FILL">
<path fill="#444444" stroke="none" d="
M 63.5 122.75
Q 62.85 122.75 62.35 123.2 61.9 123.7 61.9 124.35 61.9 125 62.35 125.45 62.85 125.9 63.5 125.9 64.15 125.9 64.6 125.45 65.05 125 65.05 124.35 65.05 123.7 64.6 123.2 64.15 122.75 63.5 122.75 Z"/>
</g>
</defs>

<g id="Layer_1">
<g transform="matrix( 1, 0, 0, 1, 0,0) ">
<use xlink:href="#Layer1_0_MEMBER_0_MEMBER_0_MEMBER_0_FILL"/>
</g>

<g transform="matrix( 1, 0, 0, 1, 0,0) ">
<use xlink:href="#Layer1_0_MEMBER_0_MEMBER_0_MEMBER_0_MEMBER_0_FILL"/>
</g>

<g transform="matrix( 0.4378662109375, 0, 0, 0.4378662109375, 7.8,1) ">
<use xlink:href="#Layer1_0_MEMBER_0_MEMBER_0_MEMBER_0_MEMBER_1_MEMBER_0_FILL"/>
</g>

<g transform="matrix( 0.4378662109375, 0, 0, 0.4378662109375, 7.8,1) ">
<use xlink:href="#Layer1_0_MEMBER_0_MEMBER_0_MEMBER_0_MEMBER_1_MEMBER_1_FILL"/>
</g>

<g transform="matrix( 0.4378662109375, 0, 0, 0.4378662109375, 7.8,1) ">
<use xlink:href="#Layer1_0_MEMBER_0_MEMBER_0_MEMBER_0_MEMBER_1_MEMBER_2_FILL"/>
</g>

<g transform="matrix( 0.4378662109375, 0, 0, 0.4378662109375, 7.8,1) ">
<use xlink:href="#Layer1_0_MEMBER_0_MEMBER_0_MEMBER_0_MEMBER_1_MEMBER_3_FILL"/>
</g>

<g transform="matrix( 0.4376678466796875, 0, 0, 0.4376678466796875, 7.8,1) ">
<use xlink:href="#Layer1_0_MEMBER_0_MEMBER_0_MEMBER_0_MEMBER_1_MEMBER_4_MEMBER_0_FILL"/>
</g>

<g transform="matrix( 0.4376678466796875, 0, 0, 0.4376678466796875, 7.8,1) ">
<use xlink:href="#Layer1_0_MEMBER_0_MEMBER_0_MEMBER_0_MEMBER_1_MEMBER_4_MEMBER_1_FILL"/>
</g>

<g transform="matrix( 0.4376678466796875, 0, 0, 0.4376678466796875, 7.8,1) ">
<use xlink:href="#Layer1_0_MEMBER_0_MEMBER_0_MEMBER_0_MEMBER_1_MEMBER_4_MEMBER_2_FILL"/>
</g>

<g transform="matrix( 0.4376678466796875, 0, 0, 0.4376678466796875, 7.8,1) ">
<use xlink:href="#Layer1_0_MEMBER_0_MEMBER_0_MEMBER_0_MEMBER_1_MEMBER_4_MEMBER_3_FILL"/>
</g>

<g transform="matrix( 0.56243896484375, 0, 0, 0.56243896484375, 0,0.1) ">
<use xlink:href="#Layer1_0_MEMBER_0_MEMBER_0_MEMBER_1_MEMBER_0_MEMBER_0_MEMBER_0_FILL"/>
</g>

<g transform="matrix( 0.56243896484375, 0, 0, 0.56243896484375, 0,0.1) ">
<use xlink:href="#Layer1_0_MEMBER_0_MEMBER_0_MEMBER_1_MEMBER_0_MEMBER_0_MEMBER_1_FILL"/>
</g>

<g transform="matrix( 0.56243896484375, 0, 0, 0.56243896484375, 0,0.1) ">
<use xlink:href="#Layer1_0_MEMBER_0_MEMBER_0_MEMBER_1_MEMBER_0_MEMBER_0_MEMBER_2_FILL"/>
</g>

<g transform="matrix( 0.56243896484375, 0, 0, 0.56243896484375, 0,0.1) ">
<use xlink:href="#Layer1_0_MEMBER_0_MEMBER_0_MEMBER_1_MEMBER_0_MEMBER_1_MEMBER_0_FILL"/>
</g>

<g transform="matrix( 0.56243896484375, 0, 0, 0.56243896484375, 0,0.1) ">
<use xlink:href="#Layer1_0_MEMBER_0_MEMBER_0_MEMBER_1_MEMBER_0_MEMBER_1_MEMBER_1_FILL"/>
</g>

<g transform="matrix( 0.56243896484375, 0, 0, 0.56243896484375, 0,0.1) ">
<use xlink:href="#Layer1_0_MEMBER_0_MEMBER_0_MEMBER_1_MEMBER_0_MEMBER_1_MEMBER_2_FILL"/>
</g>

<g transform="matrix( 1, 0, 0, 1, 0,0) ">
<use xlink:href="#Layer1_0_MEMBER_0_MEMBER_0_MEMBER_1_MEMBER_1_FILL"/>
</g>

<g transform="matrix( 0.5625, 0, 0, 0.5625, 0,0) ">
<use xlink:href="#Layer1_0_MEMBER_0_MEMBER_1_FILL"/>
</g>

<g transform="matrix( 0.5625, 0, 0, 0.5625, 0,0) ">
<use xlink:href="#Layer1_0_MEMBER_0_MEMBER_2_FILL"/>
</g>
</g>

<g id="Camada_1"/>
</svg>
